X:136
T:Whole Polka. Le4.136, The
M:2/4
L:1/8
Q:1/4=100
N:On a non-scientific note, this would make a great tune for the Bacup Nutters
B:L.Leadley MS#4 c1850
Z:Village Music Project, 2016 Ruairidh Greig
K:D
(e/f/)|g/e/c/A/ Gz/ B//|BAAz/ d/|dcc z/e/|edd (e/f/)|
g/e/c/A/ Gz/ B//|BAA z/ d/|d/c/^B/c/ f>e|ddd||
A|ABcd|F3F|FG ^GA|D3A|
FA de|f3e|dF BA|F3F/G/|
ABcd|F3F|FF GA|B3B|
BBcB|A3A|Ac fe|"Da Capo"d3|]

